X:1
T:Minuet
T:Minuet
T:k315a
T:Wolfgang Amadeus Mozart
C:Wolfgang Amadeus Mozart
%%score 1 2
L:1/8
M:3/4
K:C
V:1 treble 
V:2 bass 
V:1
 c2 | G2 c2 e2 | g2 z2 ge | ef d2 d2 | c2 e2 c2 | G2 c2 e2 | g2 [ec']2 [db]2 | [ca]2 [Bg]2 [A^f]2 | %8
 [Bg]2 z2 :: ge | ef d2 d2 | ec G2 ge | ef d2 d2 e2 z2 c2 | G2 c2 e2 | g2 c'bag | gf e2 [Bd]2 | %16
 [Ec]4 x2 | x4 :| %18
V:2
 z2 | C,E,G,E,G,E, | C,E,G,E,G,E, | B,,D,G,D,G,D, | C,E,G,E,G,E, | C,E,G,E,G,E, | C,2 ^F,2 G,2 | %7
 C,2 D,2 D,,2 | G,,2 G,2 :: z2 | B,,D,G,D,G,D, | C,E,G,E,G,E, | B,,D,G,D,G,D, x6 | C,E,G,E,G,E, | %14
 C,E,G,E,G,E, | C,2 z2 C2 | F,2 G,2 G,,2 | C,2 C,,2 :| %18

